symbols/iconen/rest.svg

<?xml version="1.0" encoding="UTF-8" standalone="no"?>
<svg
   xmlns:dc="http://purl.org/dc/elements/1.1/"
   xmlns:cc="http://creativecommons.org/ns#"
   xmlns:rdf="http://www.w3.org/1999/02/22-rdf-syntax-ns#"
   xmlns:svg="http://www.w3.org/2000/svg"
   xmlns="http://www.w3.org/2000/svg"
   viewBox="0 0 226.772 264.56668"
   height="264.56668"
   width="226.772"
   xml:space="preserve"
   id="svg2"
   version="1.1"><metadata
     id="metadata8"><rdf:RDF><cc:Work
         rdf:about=""><dc:format>image/svg+xml</dc:format><dc:type
           rdf:resource="http://purl.org/dc/dcmitype/StillImage" /></cc:Work></rdf:RDF></metadata><defs
     id="defs6"><clipPath
       id="clipPath18"
       clipPathUnits="userSpaceOnUse"><path
         id="path16"
         d="M 0,198.425 H 170.079 V 0 H 0 Z" /></clipPath><clipPath
       id="clipPath32"
       clipPathUnits="userSpaceOnUse"><path
         id="path30"
         d="M 0,198.425 H 170.079 V 0 H 0 Z" /></clipPath><clipPath
       id="clipPath74"
       clipPathUnits="userSpaceOnUse"><path
         id="path72"
         d="M 0,198.425 H 170.079 V 0 H 0 Z" /></clipPath></defs><g
     transform="matrix(1.3333333,0,0,-1.3333333,0,264.56667)"
     id="g10"><g
       id="g12"><g
         clip-path="url(#clipPath18)"
         id="g14"><g
           transform="translate(165.8226,198.4252)"
           id="g20"><path
             id="path22"
             style="fill:#6e6b6c;fill-opacity:1;fill-rule:nonzero;stroke:none"
             d="m 0,0 h -161.566 c -2.351,0 -4.257,-1.905 -4.257,-4.256 v -156.151 -5.416 -26.528 c 0,-3.355 2.72,-6.074 6.074,-6.074 H -1.818 c 3.355,0 6.074,2.719 6.074,6.074 v 26.528 5.416 156.151 C 4.256,-1.905 2.351,0 0,0" /></g><path
           id="path24"
           style="fill:#ffffff;fill-opacity:1;fill-rule:nonzero;stroke:none"
           d="M 8.5,189.925 H 161.579 V 38.018 H 8.5 Z" /></g></g><g
       id="g26"><g
         clip-path="url(#clipPath32)"
         id="g28"><g
           transform="translate(40.8254,20.3598)"
           id="g34"><path
             id="path36"
             style="fill:#ffffff;fill-opacity:1;fill-rule:nonzero;stroke:none"
             d="m 0,0 c 1.399,0 2.3,1 2.3,2.55 0,1.524 -0.901,2.499 -2.275,2.499 h -2.224 l 0,-5.049 z m -5.499,7.698 h 5.924 c 3.049,0 5.199,-2.099 5.199,-5.124 0,-2.149 -1.101,-3.824 -2.949,-4.499 L 2.649,-1.975 7.273,-8.548 H 3.449 L -0.6,-2.6 h -1.599 v -5.948 h -3.3 z" /></g><g
           transform="translate(52.1769,19.2348)"
           id="g38"><path
             id="path40"
             style="fill:#ffffff;fill-opacity:1;fill-rule:nonzero;stroke:none"
             d="M 0,0 H 6.223 C 6.024,1.625 4.774,2.725 3.099,2.725 1.424,2.725 0.175,1.625 0,0 m -3.125,-1.249 c 0,3.824 2.575,6.473 6.249,6.473 3.674,0 6.224,-2.624 6.224,-6.399 0,-0.3 -0.051,-0.774 -0.101,-1.099 H 0 c 0.225,-1.674 1.65,-2.799 3.474,-2.799 1.349,0 2.524,0.5 3.299,1.399 l 1.875,-1.824 c -1.125,-1.45 -3.075,-2.225 -5.324,-2.225 -3.799,0 -6.449,2.674 -6.449,6.474" /></g><g
           transform="translate(66.5764,16.9857)"
           id="g42"><path
             id="path44"
             style="fill:#ffffff;fill-opacity:1;fill-rule:nonzero;stroke:none"
             d="m 0,0 c -1.675,0.5 -3.3,1.4 -3.3,3.65 0,2.274 1.9,3.823 4.724,3.823 1.9,0 3.375,-0.675 4.199,-1.924 L 3.849,3.775 c -0.625,0.774 -1.475,1.199 -2.4,1.199 -1.05,0 -1.699,-0.475 -1.699,-1.225 0,-1 1.05,-1.175 2.574,-1.649 1.675,-0.5 3.299,-1.4 3.299,-3.65 0,-2.324 -1.999,-3.924 -4.948,-3.924 -1.925,0 -3.475,0.675 -4.374,1.95 l 1.774,1.774 c 0.675,-0.8 1.574,-1.225 2.574,-1.225 1.201,0 1.925,0.5 1.925,1.326 C 2.574,-0.65 1.524,-0.475 0,0" /></g><g
           transform="translate(75.4767,16.2357)"
           id="g46"><path
             id="path48"
             style="fill:#ffffff;fill-opacity:1;fill-rule:nonzero;stroke:none"
             d="M 0,0 V 5.349 H -2.125 V 7.923 H -1 c 1.025,0 1.425,0.4 1.425,1.425 v 1.924 H 3.074 V 7.923 H 6.073 V 5.349 H 3.074 V 0 c 0,-1.199 0.625,-1.874 1.775,-1.874 0.349,0 0.774,0.05 1.024,0.125 v -2.6 C 5.498,-4.449 4.799,-4.523 4.249,-4.523 1.449,-4.523 0,-2.975 0,0" /></g><g
           transform="translate(90.7492,16.4106)"
           id="g50"><path
             id="path52"
             style="fill:#ffffff;fill-opacity:1;fill-rule:nonzero;stroke:none"
             d="M 0,0 V 0.7 L -2.05,0.675 c -1.624,-0.025 -2.499,-0.6 -2.499,-1.674 0,-0.95 0.75,-1.625 1.8,-1.625 C -1.125,-2.624 0,-1.55 0,0 m -7.673,-1.074 c 0,2.374 1.975,3.799 5.274,3.824 L 0,2.774 v 0.401 c 0,1.449 -0.925,2.199 -2.6,2.199 -1.099,0 -2.074,-0.425 -2.749,-1.2 l -1.875,1.825 c 1.076,1.324 2.8,2.049 4.924,2.049 3.3,0 5.4,-1.799 5.4,-4.674 v -4.899 c 0,-0.45 0.199,-0.649 0.699,-0.649 h 0.225 v -2.425 h -1.45 c -1.175,0 -1.974,0.55 -2.224,1.449 H 0.3 c -0.775,-1.123 -2.05,-1.748 -3.599,-1.748 -2.599,0 -4.374,1.549 -4.374,3.824" /></g><g
           transform="translate(97.7756,21.5844)"
           id="g54"><path
             id="path56"
             style="fill:#ffffff;fill-opacity:1;fill-rule:nonzero;stroke:none"
             d="M 0,0 H -2.1 V 2.574 H 0 v 1.6 c 0,2.824 1.675,4.474 4.549,4.474 0.35,0 0.875,-0.05 1.15,-0.1 V 5.874 C 5.398,5.948 4.974,5.999 4.624,5.999 3.649,5.999 3.1,5.349 3.1,4.174 v -1.6 H 6.099 V 0 H 3.1 V -9.772 H 0 Z" /></g><g
           transform="translate(104.4758,24.1586)"
           id="g58"><path
             id="path60"
             style="fill:#ffffff;fill-opacity:1;fill-rule:nonzero;stroke:none"
             d="m 0,0 h 3.374 l 2.874,-8.898 h 0.05 L 9.247,0 h 3.3 L 7.897,-12.347 H 4.573 Z" /></g><g
           transform="translate(125.3488,16.4106)"
           id="g62"><path
             id="path64"
             style="fill:#ffffff;fill-opacity:1;fill-rule:nonzero;stroke:none"
             d="M 0,0 V 0.7 L -2.05,0.675 c -1.624,-0.025 -2.499,-0.6 -2.499,-1.674 0,-0.95 0.75,-1.625 1.8,-1.625 C -1.125,-2.624 0,-1.55 0,0 m -7.673,-1.074 c 0,2.374 1.975,3.799 5.274,3.824 L 0,2.774 v 0.401 c 0,1.449 -0.925,2.199 -2.6,2.199 -1.099,0 -2.074,-0.425 -2.749,-1.2 l -1.875,1.825 c 1.076,1.324 2.8,2.049 4.924,2.049 3.3,0 5.4,-1.799 5.4,-4.674 v -4.899 c 0,-0.45 0.199,-0.649 0.699,-0.649 h 0.225 v -2.425 h -1.45 c -1.175,0 -1.974,0.55 -2.224,1.449 H 0.3 c -0.775,-1.123 -2.05,-1.748 -3.599,-1.748 -2.599,0 -4.374,1.549 -4.374,3.824" /></g><path
           id="path66"
           style="fill:#ffffff;fill-opacity:1;fill-rule:nonzero;stroke:none"
           d="m 131.8,29.932 h 3.099 V 11.812 H 131.8 Z" /></g></g><g
       id="g68"><g
         clip-path="url(#clipPath74)"
         id="g70"><g
           transform="translate(133.1975,59.1463)"
           id="g76"><path
             id="path78"
             style="fill:#231f20;fill-opacity:1;fill-rule:nonzero;stroke:none"
             d="m 0,0 c -1.597,-3.038 -4.481,-4.064 -11.435,-4.067 l -76.878,-0.041 h -0.002 c -0.83,0 -1.998,0.422 -3.285,1.187 -4.976,2.963 -7.26,9.082 -5.555,14.882 1.237,4.207 5.177,12.135 6.591,14.835 l 0.255,0.488 16.455,9.475 -2.122,3.685 -14.742,-8.489 -1.393,5.859 8.918,36.276 25.937,17.299 4.195,0.074 -16.126,-19.806 3.296,-2.685 16.721,20.536 11.769,-12.833 3.133,2.874 -11.053,12.052 2.734,0.048 12.798,-8.459 c 7.527,-4.974 13.774,-11.799 18.066,-19.738 l 1.092,-2.021 -0.687,-5.148 -16.181,5.003 -1.256,-4.063 17.41,-5.382 8.449,-21.231 -0.445,-0.291 -6.502,-7.115 -0.021,0.037 -13.904,-7.87 2.094,-3.701 11.711,6.629 L 0.615,6.965 C 1.966,4.681 1.436,2.73 0,0 m -39.733,108.954 -4.292,-8.825 -11.493,-0.204 -4.164,12.659 z m 47.302,-97.07 -0.203,0.311 -7.957,8.527 2.865,3.136 c 2.879,2.2 4.066,6.009 2.889,9.485 l -8.209,20.639 0.845,6.322 c 0.239,1.792 -0.088,3.579 -0.948,5.172 l -1.093,2.021 C -9.197,76.662 -16.41,84.542 -25.1,90.285 l -10.789,7.132 3.802,7.817 c 1.175,2.414 1.152,5.171 -0.061,7.565 -1.213,2.393 -3.422,4.041 -6.063,4.521 l -19.949,3.63 c -2.978,0.543 -5.946,-0.498 -7.935,-2.781 -1.989,-2.284 -2.611,-5.365 -1.665,-8.242 l 4.133,-12.566 -24.284,-16.196 c -1.774,-1.182 -3.031,-2.974 -3.54,-5.045 l -8.918,-36.277 c -0.321,-1.307 -0.326,-2.689 -0.016,-3.996 l 1.554,-6.533 c -1.554,-3.064 -5.119,-10.319 -6.482,-14.955 -2.802,-9.526 1.048,-19.636 9.365,-24.588 2.659,-1.582 5.227,-2.383 7.633,-2.383 h 0.005 l 76.879,0.041 c 5.045,0.002 14.435,0.007 18.958,8.614 1.265,2.405 4.625,8.796 0.042,15.841" /></g></g></g></g></svg>

<svg xmlns="http://www.w3.org/2000/svg" xmlns:xlink="http://www.w3.org/1999/xlink" version="1.1" width="170.079pt" height="170.079pt" viewBox="0 0 170.079 170.079">
<defs>
<clipPath id="clip_0">
<path transform="matrix(1,0,0,-1,0,170.079)" d="M0 170.079H170.079V0H0Z"/>
</clipPath>
</defs>
<g id="layer_1" data-name="Witte achtergrond">
<path transform="matrix(1,0,0,-1,0,170.079)" d="M0 0H170.078V170.078H0Z" fill="#ffffff"/>
</g>
<g id="layer_1" data-name="Icoon">
<g clip-path="url(#clip_0)">
<path transform="matrix(1,0,0,-1,133.1975,139.2791)" d="M0 0C-1.597-3.038-4.481-4.064-11.435-4.067L-88.313-4.108H-88.315C-89.146-4.108-90.313-3.687-91.6-2.921-96.576 .042-98.86 6.161-97.155 11.961-95.918 16.168-91.979 24.096-90.564 26.796L-90.309 27.284-73.854 36.759-75.976 40.444-90.718 31.955-92.111 37.814-83.193 74.09-57.256 91.388-53.061 91.463-69.188 71.657-65.891 68.972-49.17 89.508-37.401 76.675-34.269 79.549-45.321 91.601-42.587 91.649-29.789 83.19C-22.262 78.216-16.015 71.391-11.723 63.452L-10.631 61.431-11.318 56.283-27.499 61.286-28.755 57.223-11.345 51.841-2.896 30.61-3.341 30.319-9.843 23.204-9.864 23.241-23.768 15.371-21.674 11.67-9.963 18.299 .615 6.965C1.966 4.681 1.436 2.73 0 0M-39.733 108.954-44.025 100.129-55.519 99.925-59.682 112.584ZM7.569 11.884 7.366 12.195-.591 20.722 2.274 23.858C5.153 26.058 6.34 29.867 5.163 33.343L-3.045 53.982-2.201 60.304C-1.962 62.096-2.289 63.883-3.149 65.476L-4.242 67.497C-9.197 76.662-16.41 84.542-25.1 90.285L-35.889 97.417-32.087 105.234C-30.912 107.648-30.935 110.405-32.148 112.799-33.361 115.192-35.57 116.84-38.211 117.32L-58.16 120.95C-61.138 121.493-64.106 120.452-66.095 118.168-68.084 115.885-68.706 112.804-67.76 109.927L-63.627 97.361-87.911 81.166C-89.685 79.983-90.942 78.191-91.451 76.12L-100.369 39.843C-100.69 38.536-100.695 37.154-100.385 35.847L-98.831 29.313C-100.385 26.25-103.95 18.995-105.313 14.359-108.115 4.833-104.265-5.277-95.948-10.229-93.289-11.811-90.721-12.612-88.315-12.612H-88.31L-11.431-12.571C-6.386-12.569 3.004-12.564 7.527-3.957 8.792-1.552 12.152 4.839 7.569 11.884" fill="#231f20"/>
</g>
</g>
</svg>
